X: 43274
T: Woo'd An' Marrit An' A
R: jig
M: 6/8
K: Eminor
|:edB BAB|G2A B2d|d2B d3|edB BAB|
G2F E2D|1 [M:9/8] E2e e2d e3:|2 [M:6/8] E2e e2d|e3 e2f||
g2a g2f|e2d B2c|d2d edB|d3 e2f|g2a g2f|
e2d B2A|B2e e2d|e3 e2f|g2a g2f|e2d B2c|
d2d edB|d3 edB|BAB G2F|[M:9/8] E2D E2e e2d||

